X: 154
T: The Spanish Spy
%R: reel
B: Chas & Sam Thompson "Twenty Four Country Dances for the Year 1782", London 1782, p.77 #2
F: http://www.vwml.org/browse/browse-collections-dance-tune-books/browse-thompsons1782
Z: 2014 John Chambers <jc:trillian.mit.edu> (added dance description)
M: 2/4
L: 1/16
K: A
% - - - - - - - - - - - - - - - - - - - - - - - - - - - - -
e2 |\
A3A (3(ABc) BA | BABc B2e2 |\
A3A (3(ABc) BA | E2A2A2 :|\
|: e2 |\
ABcd efec | afec afec |
ABcd efec | BABc B2e2 |\
ABcd efec | afec afec |\
F4 E2AB | c2A2A2 :|
% - - - - - - - - - - Dance description - - - - - - - - - -
%%begintext align
%% First Gent.n turn the 2d Lady .|. the 1st Lady
%% turn the 2d Gent: :|. cross over one Cu: lead
%% thro top & cast of .|: right & left at top :|:
%%endtext

%%sep 1 1 500
%%sep 1 1 500
